icons/1_Primary/PeerBerry.svg

<svg width="1024" height="1024" fill="none" xmlns="http://www.w3.org/2000/svg"><g clip-path="url(#a)"><path d="M512 1024c282.77 0 512-229.23 512-512S794.77 0 512 0 0 229.23 0 512s229.23 512 512 512Z" fill="#96DFD3"/><path d="M520.46 247.54c4.973 0 9.91.137 14.81.41v123.31a141.29 141.29 0 0 0-16.93-1 139.639 139.639 0 0 0-139.61 137.32V735.3A264.271 264.271 0 0 1 256 512c0-146.06 118.4-264.46 264.46-264.46Zm-2.12 169.26a93.756 93.756 0 0 1 15.28 1.2l1.65.29v93.12a139.004 139.004 0 0 0 26.73 80.7 93.111 93.111 0 0 1-115.02-22.375 93.106 93.106 0 0 1-2.033-117.158A93.098 93.098 0 0 1 518.31 416.8h.03ZM425.25 614a139.67 139.67 0 0 0 171.37 11.57 139.689 139.689 0 0 0 165.94-6.95c-41 93-134 157.88-242.11 157.88a263.827 263.827 0 0 1-95.21-17.65l.01-144.85Zm249.66-197.21a93.095 93.095 0 0 1 73.328 35.789 93.104 93.104 0 0 1 17.692 37.948 93.104 93.104 0 0 1-.729 41.864 93.102 93.102 0 0 1-52.434 62.518 93.086 93.086 0 0 1-81.547-2.809 139.677 139.677 0 0 0 0-164.44 92.684 92.684 0 0 1 43.69-10.87Zm-78.28 42.69a93.164 93.164 0 0 1 0 100.8 93.167 93.167 0 0 1-.77-99.58l.77-1.22Zm-14.81-204.79a265.003 265.003 0 0 1 177.73 144.12 139.7 139.7 0 0 0-162.92-4.57 139.59 139.59 0 0 0-12.9-7.77l-1.91-1V254.69Z" fill="#fff"/></g><defs><clipPath id="a"><path fill="#fff" d="M0 0h1024v1024H0z"/></clipPath></defs></svg>

<svg width="1024" height="1024" viewBox="0 0 1024 1024" fill="none" xmlns="http://www.w3.org/2000/svg">
<g clip-path="url(#clip0_2_3111)">
<path d="M512 1024C794.77 1024 1024 794.77 1024 512C1024 229.23 794.77 0 512 0C229.23 0 0 229.23 0 512C0 794.77 229.23 1024 512 1024Z" fill="#96DFD3"/>
<path d="M520.46 247.54C525.433 247.54 530.37 247.677 535.27 247.95V371.26C529.652 370.588 523.998 370.254 518.34 370.26C481.709 370.263 446.546 384.659 420.43 410.347C394.315 436.034 379.339 470.954 378.73 507.58V735.3C341.11 711.441 310.132 678.458 288.675 639.419C267.218 600.379 255.978 556.548 256 512C256 365.94 374.4 247.54 520.46 247.54ZM518.34 416.8C523.458 416.782 528.568 417.184 533.62 418L535.27 418.29V511.41C535.534 540.441 544.881 568.662 562 592.11C549.512 598.747 535.675 602.452 521.541 602.944C507.407 603.435 493.347 600.7 480.427 594.946C467.508 589.192 456.07 580.57 446.98 569.735C437.891 558.9 431.39 546.136 427.97 532.413C424.55 518.691 424.301 504.369 427.243 490.535C430.184 476.702 436.239 463.721 444.947 452.577C453.655 441.433 464.787 432.419 477.499 426.22C490.21 420.021 504.167 416.799 518.31 416.8H518.34ZM425.25 614C448.444 634.742 477.901 647.145 508.946 649.241C539.992 651.337 570.848 643.006 596.62 625.57C621.382 642.321 650.865 650.686 680.735 649.435C710.605 648.184 739.285 637.383 762.56 618.62C721.56 711.62 628.56 776.5 520.45 776.5C487.896 776.541 455.616 770.557 425.24 758.85L425.25 614ZM674.91 416.79C689.048 416.796 702.999 420.021 715.704 426.222C728.409 432.423 739.535 441.437 748.238 452.579C756.94 463.721 762.99 476.698 765.93 490.527C768.869 504.356 768.619 518.673 765.201 532.391C761.782 546.109 755.283 558.868 746.198 569.701C737.113 580.533 725.68 589.154 712.767 594.909C699.853 600.664 685.799 603.402 671.669 602.915C657.54 602.428 643.707 598.73 631.22 592.1C648.613 568.214 657.982 539.428 657.982 509.88C657.982 480.333 648.613 451.546 631.22 427.66C644.669 420.501 659.675 416.767 674.91 416.79ZM596.63 459.48C606.299 474.512 611.441 492.007 611.441 509.88C611.441 527.753 606.299 545.249 596.63 560.28C587.095 545.455 581.961 528.228 581.825 510.602C581.689 492.975 586.555 475.671 595.86 460.7L596.63 459.48ZM581.82 254.69C620.33 263.908 656.285 281.638 687.042 306.579C717.799 331.519 742.575 363.035 759.55 398.81C736.288 381.094 708.054 371.124 678.826 370.304C649.597 369.484 620.848 377.856 596.63 394.24C592.473 391.42 588.167 388.826 583.73 386.47L581.82 385.47V254.69Z" fill="white"/>
</g>
<defs>
<clipPath id="clip0_2_3111">
<rect width="1024" height="1024" fill="white"/>
</clipPath>
</defs>
</svg>
